src/lib/packages/icons/src/assets/line/money-withdrawal.svg

<svg xmlns="http://www.w3.org/2000/svg" width="24" height="24" fill="none"><path fill="currentColor" d="M13 17.5a1 1 0 1 1-2 0 1 1 0 0 1 2 0Zm-4-5.25c0-1.654 1.346-3 3-3s3 1.346 3 3-1.346 3-3 3-3-1.346-3-3Zm1.5 0c0 .827.673 1.5 1.5 1.5s1.5-.673 1.5-1.5-.673-1.5-1.5-1.5-1.5.673-1.5 1.5ZM18.25 7v11c0 2.418-1.332 3.75-3.75 3.75h-5c-2.418 0-3.75-1.332-3.75-3.75V7a.75.75 0 0 1 .75-.75h11a.75.75 0 0 1 .75.75Zm-1.5.75h-9.5V18c0 1.577.673 2.25 2.25 2.25h5c1.577 0 2.25-.673 2.25-2.25V7.75Zm2.75-5.5h-15c-1.409 0-2.25.841-2.25 2.25v6c0 1.161.578 1.956 1.586 2.182a.751.751 0 0 0 .329-1.464c-.175-.039-.414-.093-.414-.718v-6c0-.589.161-.75.75-.75h15c.589 0 .75.161.75.75v6c0 .625-.239.679-.414.718a.75.75 0 0 0 .328 1.464c1.008-.226 1.586-1.021 1.586-2.182v-6c-.001-1.409-.842-2.25-2.251-2.25Z"/></svg>

<svg width="24" height="24" viewBox="0 0 24 24" fill="none" xmlns="http://www.w3.org/2000/svg">
<path d="M13 17.5C13 18.052 12.552 18.5 12 18.5C11.448 18.5 11 18.052 11 17.5C11 16.948 11.448 16.5 12 16.5C12.552 16.5 13 16.948 13 17.5ZM9 12.25C9 10.596 10.346 9.25 12 9.25C13.654 9.25 15 10.596 15 12.25C15 13.904 13.654 15.25 12 15.25C10.346 15.25 9 13.904 9 12.25ZM10.5 12.25C10.5 13.077 11.173 13.75 12 13.75C12.827 13.75 13.5 13.077 13.5 12.25C13.5 11.423 12.827 10.75 12 10.75C11.173 10.75 10.5 11.423 10.5 12.25ZM18.25 7V18C18.25 20.418 16.918 21.75 14.5 21.75H9.5C7.082 21.75 5.75 20.418 5.75 18V7C5.75 6.586 6.086 6.25 6.5 6.25H17.5C17.914 6.25 18.25 6.586 18.25 7ZM16.75 7.75H7.25V18C7.25 19.577 7.923 20.25 9.5 20.25H14.5C16.077 20.25 16.75 19.577 16.75 18V7.75ZM19.5 2.25H4.5C3.091 2.25 2.25 3.091 2.25 4.5V10.5C2.25 11.661 2.828 12.456 3.836 12.682C4.241 12.77 4.64099 12.519 4.73199 12.114C4.82299 11.71 4.56898 11.309 4.16498 11.218C3.98998 11.179 3.75098 11.125 3.75098 10.5V4.5C3.75098 3.911 3.91198 3.75 4.50098 3.75H19.501C20.09 3.75 20.251 3.911 20.251 4.5V10.5C20.251 11.125 20.012 11.179 19.837 11.218C19.433 11.309 19.179 11.709 19.27 12.114C19.348 12.463 19.658 12.7 20 12.7C20.055 12.7 20.109 12.694 20.165 12.682C21.173 12.456 21.751 11.661 21.751 10.5V4.5C21.75 3.091 20.909 2.25 19.5 2.25Z" fill="currentColor"/>
</svg>
